svg/icon/iop.svg

<svg height="32" viewBox="0 0 32 32" width="32" xmlns="http://www.w3.org/2000/svg" xmlns:xlink="http://www.w3.org/1999/xlink"><defs><linearGradient id="a" x1="50%" x2="50%" y1="0%" y2="100%"><stop offset="0" stop-color="#fff" stop-opacity=".5"/><stop offset="1" stop-opacity=".5"/></linearGradient><circle id="b" cx="16" cy="15" r="15"/><filter id="c" height="111.7%" width="111.7%" x="-5.8%" y="-4.2%"><feOffset dy=".5" in="SourceAlpha" result="shadowOffsetOuter1"/><feGaussianBlur in="shadowOffsetOuter1" result="shadowBlurOuter1" stdDeviation=".5"/><feComposite in="shadowBlurOuter1" in2="SourceAlpha" operator="out" result="shadowBlurOuter1"/><feColorMatrix in="shadowBlurOuter1" values="0 0 0 0 0   0 0 0 0 0   0 0 0 0 0  0 0 0 0.199473505 0"/></filter><path id="d" d="m10.1228558 7.28273892.3979572-.71639203c.1944606-.35006275.5579558-.56634689.9518238-.56634689h8.9552239c.3714514 0 .7161716.19239714.9173732.50847458h4.0577512v7.13945842l.4490227.7903561c.1973229.3473218.1973229.7761 0 1.1234218l-.4490227.7903561v3.0716618l-3.4371609 2.978324-.5914283 1.041014c-.1958691.3447629-.556463.5569332-.9465352.5569332h-8.9552239c-.393868 0-.7573632-.2162841-.9518238-.5663469l-.0243435-.0438226h-3.99895706v-7.1988159l-.35480885-.6387174c-.19027145-.3425216-.19027145-.7620728 0-1.1045944l.35480885-.6387174v-3.2327142zm1.349781-.16409485-4.37810944 7.88135593 4.37810944 7.8813559h8.9552239l4.4776119-7.8813559-4.4776119-7.88135593zm.4055017.7118644h8.1487327l4.0731825 7.16949153-4.0731825 7.1694915h-8.1487327l-3.98266732-7.1694915zm1.8830555 3.05084743-2.1890547 4.0677966 2.1890547 4.0677967h4.6766169l2.1890548-4.0677967-2.1890548-4.0677966z"/><filter id="e" height="119.4%" width="117.5%" x="-8.8%" y="-6.9%"><feOffset dy=".5" in="SourceAlpha" result="shadowOffsetOuter1"/><feGaussianBlur in="shadowOffsetOuter1" result="shadowBlurOuter1" stdDeviation=".5"/><feColorMatrix in="shadowBlurOuter1" values="0 0 0 0 0   0 0 0 0 0   0 0 0 0 0  0 0 0 0.204257246 0"/></filter></defs><g fill="none" fill-rule="evenodd"><g fill-rule="nonzero"><use fill="#000" filter="url(#c)" xlink:href="#b"/><use fill="#4cb8d1" fill-rule="evenodd" xlink:href="#b"/><use fill="url(#a)" fill-rule="evenodd" xlink:href="#b"/><circle cx="16" cy="15" r="14.5" stroke="#000" stroke-opacity=".097"/></g><use fill="#000" filter="url(#e)" xlink:href="#d"/><use fill="#fff" xlink:href="#d"/></g></svg>

<svg xmlns="http://www.w3.org/2000/svg" xmlns:xlink="http://www.w3.org/1999/xlink" width="32" height="32" viewBox="0 0 32 32">
  <defs>
    <linearGradient id="iop-c" x1="50%" x2="50%" y1="0%" y2="100%">
      <stop offset="0%" stop-color="#FFF" stop-opacity=".5"/>
      <stop offset="100%" stop-opacity=".5"/>
    </linearGradient>
    <circle id="iop-b" cx="16" cy="15" r="15"/>
    <filter id="iop-a" width="111.7%" height="111.7%" x="-5.8%" y="-4.2%" filterUnits="objectBoundingBox">
      <feOffset dy=".5" in="SourceAlpha" result="shadowOffsetOuter1"/>
      <feGaussianBlur in="shadowOffsetOuter1" result="shadowBlurOuter1" stdDeviation=".5"/>
      <feComposite in="shadowBlurOuter1" in2="SourceAlpha" operator="out" result="shadowBlurOuter1"/>
      <feColorMatrix in="shadowBlurOuter1" values="0 0 0 0 0   0 0 0 0 0   0 0 0 0 0  0 0 0 0.199473505 0"/>
    </filter>
    <path id="iop-e" d="M10.1228558,7.28273892 L10.520813,6.56634689 C10.7152736,6.21628414 11.0787688,6 11.4726368,6 L20.4278607,6 C20.7993121,6 21.1440323,6.19239714 21.3452339,6.50847458 L25.4029851,6.50847458 L25.4029851,13.647933 L25.8520078,14.4382891 C26.0493307,14.7856109 26.0493307,15.2143891 25.8520078,15.5617109 L25.4029851,16.352067 L25.4029851,19.4237288 L21.9658242,22.4020528 L21.3743959,23.4430668 C21.1785268,23.7878297 20.8179329,24 20.4278607,24 L11.4726368,24 C11.0787688,24 10.7152736,23.7837159 10.520813,23.4336531 L10.4964695,23.3898305 L6.49751244,23.3898305 L6.49751244,16.1910146 L6.14270359,15.5522972 C5.95243214,15.2097756 5.95243214,14.7902244 6.14270359,14.4477028 L6.49751244,13.8089854 L6.49751244,10.5762712 L10.1228558,7.28273892 Z M11.4726368,7.11864407 L7.09452736,15 L11.4726368,22.8813559 L20.4278607,22.8813559 L24.9054726,15 L20.4278607,7.11864407 L11.4726368,7.11864407 Z M11.8781385,7.83050847 L20.0268712,7.83050847 L24.1000537,15 L20.0268712,22.1694915 L11.8781385,22.1694915 L7.89547118,15 L11.8781385,7.83050847 Z M13.761194,10.8813559 L11.5721393,14.9491525 L13.761194,19.0169492 L18.4378109,19.0169492 L20.6268657,14.9491525 L18.4378109,10.8813559 L13.761194,10.8813559 Z"/>
    <filter id="iop-d" width="117.5%" height="119.4%" x="-8.8%" y="-6.9%" filterUnits="objectBoundingBox">
      <feOffset dy=".5" in="SourceAlpha" result="shadowOffsetOuter1"/>
      <feGaussianBlur in="shadowOffsetOuter1" result="shadowBlurOuter1" stdDeviation=".5"/>
      <feColorMatrix in="shadowBlurOuter1" values="0 0 0 0 0   0 0 0 0 0   0 0 0 0 0  0 0 0 0.204257246 0"/>
    </filter>
  </defs>
  <g fill="none" fill-rule="evenodd">
    <g fill-rule="nonzero">
      <use fill="#000" filter="url(#iop-a)" xlink:href="#iop-b"/>
      <use fill="#4CB8D1" fill-rule="evenodd" xlink:href="#iop-b"/>
      <use fill="url(#iop-c)" fill-rule="evenodd" style="mix-blend-mode:soft-light" xlink:href="#iop-b"/>
      <circle cx="16" cy="15" r="14.5" stroke="#000" stroke-opacity=".097"/>
    </g>
    <use fill="#000" filter="url(#iop-d)" xlink:href="#iop-e"/>
    <use fill="#FFF" xlink:href="#iop-e"/>
  </g>
</svg>
